assets/img/partners/white-caret.svg

<svg width="8" height="12" viewBox="0 0 8 12" fill="none" xmlns="http://www.w3.org/2000/svg">
<g clip-path="url(#clip0_722_666)">
<path d="M6.88239 6.27645L1.34703 11.8791C1.26842 11.9492 1.16914 11.9917 1.0642 12.0004C0.962646 11.9941 0.86686 11.951 0.794843 11.8791L0.121442 11.2731C0.0473356 11.2026 0.00381592 11.1059 0.000230038 11.0037C0.0191196 10.9178 0.0610194 10.8387 0.121442 10.7748L4.84871 5.99362L0.121442 1.34715C0.0362687 1.25108 -0.00732262 1.12515 0.000230038 0.996985C0.0064623 0.895428 0.0495659 0.799642 0.121442 0.727625L0.727503 0.121564C0.79952 0.049688 0.895306 0.00658437 0.996863 0.000352109C1.12503 -0.00720055 1.25096 0.0363908 1.34703 0.121564L6.88239 5.72426C6.95426 5.79628 6.99736 5.89206 7.0036 5.99362C7.00068 6.09989 6.95732 6.20104 6.88239 6.27645Z" fill="white"/>
</g>
<defs>
<clipPath id="clip0_722_666">
<rect width="7.00337" height="12" fill="white"/>
</clipPath>
</defs>
</svg>

<svg width="8" height="12" viewBox="0 0 8 12" fill="none" xmlns="http://www.w3.org/2000/svg"><g clip-path="url(#clip0_722_666)"><path d="M6.882 6.276L1.347 11.88a.485.485 0 01-.283.121.418.418 0 01-.27-.12l-.673-.607a.39.39 0 01-.12-.27.485.485 0 01.12-.228L4.85 5.994.12 1.347A.485.485 0 010 .997a.418.418 0 01.12-.27L.728.123A.418.418 0 01.997 0a.485.485 0 01.35.122l5.535 5.602a.418.418 0 01.122.27.418.418 0 01-.122.282z" fill="#fff"/></g><defs><clipPath id="clip0_722_666"><path fill="#fff" d="M0 0h7.003v12H0z"/></clipPath></defs></svg>
